!!!COM: Music21
!!!OTL: jig_John-Regans
!!!OMV: jig_John-Regans
**kern
*clefG2
*k[f#c#]
*D:
*M6/8
=1
4a
8d
8f#L
8e
8dJ
=
4a
8d
8f#L
8e
8dJ
=
8gL
8b
8gJ
8f#L
8a
8f#J
=
8eL
8f#
8eJ
8eL
8f#
8gJ
=
4a
8d
8f#L
8e
8dJ
=
4a
8d
8f#L
8e
8dJ
!!linebreak:original
=
8ddL
8cc#
8bJ
8aL
8f#
8eJ
=
8dL
8e
8dJ
4.d
=||
*M6/8
4a
8d
8f#L
8e
8dJ
=
4a
8d
8f#L
8e
8dJ
=
8gL
8b
8gJ
8f#L
8a
8f#J
=
8eL
8f#
8eJ
8eL
8f#
8gJ
!!linebreak:original
=
4a
8d
8f#L
8e
8dJ
=
4a
8d
8f#L
8e
8dJ
=
8ddL
8cc#
8bJ
8aL
8f#
8eJ
=
8dL
8e
8dJ
4.d
=||
8aL
8b
8ddJ
8ff#L
8ee
8ddJ
=
8eeL
8b
8bJ
8bL
8a
8bJ
=
4dd
8ee
8ff#L
8ee
8ddJ
!!linebreak:original
=
8eeL
8ff#
8eeJ
4ee
8cc#
=
8aL
8b
8ddJ
8ff#L
8ee
8ddJ
=
8eeL
8b
8bJ
8bL
8a
8bJ
=
8ddL
8cc#
8bJ
8aL
8f#
8eJ
=
8dL
8e
8dJ
4.d
=||
8aL
8b
8ddJ
8ff#L
8ee
8ddJ
=
8eeL
8b
8bJ
8bL
8a
8bJ
!!linebreak:original
=
4dd
8ee
8ff#L
8ee
8ddJ
=
8eeL
8ff#
8eeJ
4ee
8cc#
=
8aL
8b
8ddJ
8ff#L
8ee
8ddJ
=
8eeL
8b
8bJ
8bL
8a
8bJ
=
8ddL
8cc#
8bJ
8aL
8f#
8eJ
=
8dL
8e
8dJ
4.d
=||
4dd
8ee
4ff#
8dd
!!linebreak:original
=
8eeL
8ff#
8ddJ
8cc#L
8b
8aJ
=
8bL
8dd
8bJ
8aL
8f#
8dJ
=
8eL
8f#
8eJ
4e
8cc#
=
4dd
8ee
4ff#
8dd
=
8eeL
8ff#
8ddJ
8cc#L
8b
8aJ
=
8ddL
8cc#
8bJ
8aL
8f#
8eJ
=
8dL
8e
8dJ
4.d
!!linebreak:original
=||
4dd
8ee
4ff#
8dd
=
8eeL
8ff#
8ddJ
8cc#L
8b
8aJ
=
8bL
8dd
8bJ
8aL
8f#
8dJ
=
8eL
8f#
8eJ
4e
8cc#
=
4dd
8ee
4ff#
8dd
=
8eeL
8ff#
8ddJ
8cc#L
8b
8aJ
=
8ddL
8cc#
8bJ
8aL
8f#
8eJ
!!linebreak:original
=
8dL
8e
8dJ
4.d
=||
*-
